X:177
T:The Green Mountain
Z:Philippe Murphy
M:4/4
L:1/8
R:reel
K:D
AF3 AFEF | DF3 ABde | f3d efdB | Adfd efdB |
AF3 AFEF | DF3 ABde | f3d efdB |1 AFEF D2dB :|2 AFEF D2de |
fa3 bfaf | defd e2de | f2df efdB | Adfd efde |
fa3 bfaf | defd efde | f2df efdB |1 AFEF D2de :|2 AFEF D2dB |]
